X: 11201
T: There are few good Fellows when Jamie's awa'
%R: waltz, minuet
B: James Oswald "The Caledonian Pocket Companion" v.1 b.1 p.20 #1
Z: 2020 John Chambers <jc:trillian.mit.edu>
M: 3/4
L: 1/8
K: Am
%%slurgraces 1
%%graceslurs 1
AB |\
c2 {e}dc{c}BA | B2 (cB)(AG) | E2 G2 GA | G4 (A>B) |\
(c3/d//e//) dcBA | B2 {d}cB{B}AG | E2 A2 AB | A4 (G/A/)B |\
c3 def | g>agfed |
B2 B2 g2 | G4 (AB) |\
(c2 d2) e2 | E3 GED | E2 A2 AB | A4 :: ab |\
c'2 d'c'ba | b2 {ab}c'bag | e2g2 (ga) | g4 ab |\
(3(c'ba) e'c'ba |
e3 dcd | e2 a2 (ab) | a4 (AB) |\
c3 def | {ef}g2 fedc | (Bed)cBA | (G2 A2) B2 |\
(3(cBA) (3(dcB) e2 | E3 GED | E2 A2 AB | A4 :|


